static/img/icon-search-grey.svg

<svg fill="none" height="18" viewBox="0 0 18 18" width="18" xmlns="http://www.w3.org/2000/svg"><path clip-rule="evenodd" d="m8.25 1.6875c-3.62437 0-6.5625 2.93813-6.5625 6.5625 0 3.6244 2.93813 6.5625 6.5625 6.5625 1.60967 0 3.084-.5795 4.2257-1.5413l2.5016 2.5015c.2196.2197.5758.2197.7954 0 .2197-.2196.2197-.5758 0-.7954l-2.5015-2.5016c.9618-1.1417 1.5413-2.61603 1.5413-4.2257 0-3.62437-2.9381-6.5625-6.5625-6.5625zm-5.4375 6.5625c0-3.00305 2.43445-5.4375 5.4375-5.4375 3.003 0 5.4375 2.43445 5.4375 5.4375 0 3.003-2.4345 5.4375-5.4375 5.4375-3.00305 0-5.4375-2.4345-5.4375-5.4375z" fill="#a9aaab" fill-rule="evenodd"/></svg>

<svg width="18" height="18" viewBox="0 0 18 18" fill="none" xmlns="http://www.w3.org/2000/svg">
<path fill-rule="evenodd" clip-rule="evenodd" d="M8.25 1.6875C4.62563 1.6875 1.6875 4.62563 1.6875 8.25C1.6875 11.8744 4.62563 14.8125 8.25 14.8125C9.85967 14.8125 11.334 14.233 12.4757 13.2712L14.9773 15.7727C15.1969 15.9924 15.5531 15.9924 15.7727 15.7727C15.9924 15.5531 15.9924 15.1969 15.7727 14.9773L13.2712 12.4757C14.233 11.334 14.8125 9.85967 14.8125 8.25C14.8125 4.62563 11.8744 1.6875 8.25 1.6875ZM2.8125 8.25C2.8125 5.24695 5.24695 2.8125 8.25 2.8125C11.253 2.8125 13.6875 5.24695 13.6875 8.25C13.6875 11.253 11.253 13.6875 8.25 13.6875C5.24695 13.6875 2.8125 11.253 2.8125 8.25Z" fill="#A9AAAB"/>
</svg>
